world_stage/static/flags/NOR/square.svg

<svg height="1500" viewBox="0 0 1500 1500" width="1500" xmlns="http://www.w3.org/2000/svg"><path d="m0 1500h1500v-1500.00000212h-1500z" fill="#ef2b2d" stroke-width="1.67011"/><path d="m409.09092 1500h272.72864v-1500.00000212h-272.72864z" fill="#fff" stroke-width="1.67011"/><path d="m0 886.36364h1500v-272.72728h-1500z" fill="#fff" stroke-width="1.36364"/><g fill="#002868"><path d="m477.27274 1500h136.36364v-1500.00000212h-136.36364z" stroke-width="1.67011"/><path d="m0 818.18182h1500v-136.36364h-1500z" stroke-width="1.36364"/></g></svg>

<?xml version="1.0" encoding="UTF-8" standalone="no"?>
<svg
   height="1500"
   viewBox="0 0 1500 1500"
   width="1500"
   version="1.1"
   id="svg6"
   sodipodi:docname="square.svg"
   inkscape:version="1.4 (e7c3feb1, 2024-10-09)"
   xmlns:inkscape="http://www.inkscape.org/namespaces/inkscape"
   xmlns:sodipodi="http://sodipodi.sourceforge.net/DTD/sodipodi-0.dtd"
   xmlns="http://www.w3.org/2000/svg"
   xmlns:svg="http://www.w3.org/2000/svg">
  <defs
     id="defs6" />
  <sodipodi:namedview
     id="namedview6"
     pagecolor="#ffffff"
     bordercolor="#000000"
     borderopacity="0.25"
     inkscape:showpageshadow="2"
     inkscape:pageopacity="0.0"
     inkscape:pagecheckerboard="0"
     inkscape:deskcolor="#d1d1d1"
     inkscape:current-layer="svg6" />
  <path
     d="M 0,1500 H 1500 V -2.1212001e-6 H 0 Z"
     fill="#ef2b2d"
     id="path1"
     style="stroke-width:1.67011" />
  <path
     d="M 409.09092,1500 H 681.81956 V -2.1212001e-6 H 409.09092 Z"
     fill="#ffffff"
     id="path2"
     style="stroke-width:1.67011" />
  <path
     d="M 0,886.36364 H 1500 V 613.63636 H 0 Z"
     fill="#ffffff"
     id="path3"
     style="stroke-width:1.36364" />
  <path
     d="M 477.27274,1500 H 613.63638 V -2.1212001e-6 H 477.27274 Z"
     id="path4"
     style="fill:#002868;stroke-width:1.67011" />
  <path
     d="M 0,818.18182 H 1500 V 681.81818 H 0 Z"
     id="path5"
     style="fill:#002868;stroke-width:1.36364" />
</svg>
